X:55
T:Down through the Broom
S:Christy Barry
D:Late...in the Night
Z: id:ng-reels-55 transcribed by Alan Ng alan@alan-ng.nospam (net) 23 Dec 2007
M:C|
K:ADor
|A2BG A2Bd|egfa gedB|G2BE GEBE|GGBA GEDB|GA~A2 ~A2B/c/d|\
egfg efgz|gfge dGBd|~g3d BAAG::a2ea aaea|aaba gede|\
g2ba gbaf|g2ba gedg|azea aaea|aaba gedg|gfge dGBd|~g3d BAAz:|*
